IMB-X-Files/The-Ambassadors-Assets/660d407c54791211e3f1021c_Logo-5.svg

<svg fill="none" height="59" viewBox="0 0 183 59" width="183" xmlns="http://www.w3.org/2000/svg"><g fill="#fff"><path d="m91.1532 40.1853c.2791-.726.4193-1.9126.4193-3.5594v-6.9387c0-1.5982-.1402-2.7664-.4193-3.5053-.2794-.7384-.7717-1.108-1.4763-1.108-.6807 0-1.1612.3696-1.4402 1.108-.2795.7389-.4193 1.9071-.4193 3.5053v6.9387c0 1.6468.1335 2.8334.4012 3.5594.2669.7268.7529 1.0897 1.4583 1.0897.7046 0 1.1969-.3629 1.4763-1.0897zm-5.6506 3.4875c-1.0092-.6774-1.7264-1.7313-2.1511-3.1605-.4255-1.4284-.6379-3.3296-.6379-5.7029v-3.2331c0-2.3974.2426-4.3229.729-5.7758.4859-1.453 1.2451-2.5122 2.2787-3.1784 1.0327-.6658 2.3878-.999 4.0651-.999 1.6526 0 2.977.3393 3.9737 1.0171.9963.678 1.7256 1.7379 2.1877 3.1785.4612 1.4411.6924 3.3602.6924 5.7576v3.2331c0 2.3733-.2249 4.2808-.6744 5.7214-.4499 1.4409-1.1792 2.4944-2.1876 3.16-1.0089.666-2.3757.9992-4.1013.9992-1.7747 0-3.1663-.3394-4.1743-1.0172z"/><path d="m163.575 25.4902c-.255.3148-.426.8296-.511 1.5437-.085.7145-.127 1.7981-.127 3.2511v1.5984h3.682v-1.5984c0-1.4285-.049-2.5122-.146-3.2511-.097-.7385-.273-1.2588-.528-1.5618-.256-.3028-.651-.4544-1.185-.4544-.535 0-.93.1579-1.185.4725zm-.638 9.3721v1.1262c0 1.4291.042 2.5006.127 3.2147.085.7145.261 1.2353.529 1.5623.267.3266.68.4904 1.24.4904.753 0 1.27-.2907 1.549-.8722.279-.5811.431-1.5496.455-2.9061l4.339.2544c.025.1944.037.4606.037.799 0 2.0589-.565 3.5968-1.696 4.6139-1.129 1.0167-2.728 1.5255-4.794 1.5255-2.479 0-4.217-.7747-5.213-2.325-.997-1.5492-1.495-3.9469-1.495-7.1924v-3.8871c0-3.342.516-5.7814 1.549-7.3198 1.033-1.5377 2.802-2.3066 5.305-2.3066 1.725 0 3.05.3149 3.974.9444.923.6301 1.574 1.6109 1.95 2.9424.377 1.3321.566 3.1729.566 5.5217v3.8143z"/><path d="m73.2514 34.4452-5.7241-20.5971h4.9947l2.0051 9.3359c.5108 2.3012.8872 4.2627 1.1302 5.8848h.146c.17-1.1623.5468-3.1116 1.1301-5.8484l2.0781-9.3723h4.9947l-5.7966 20.5971v9.8813h-4.9582z"/><path d="m112.885 22.0587v22.2679h-3.938l-.437-2.7244h-.109c-1.07 2.0583-2.674 3.0873-4.813 3.0873-1.483 0-2.576-.4838-3.281-1.4528-.7052-.9681-1.0572-2.4822-1.0572-4.5407v-16.6373h5.0312v16.3466c0 .9935.109 1.7016.328 2.1249.219.4244.583.6359 1.094.6359.437 0 .857-.1328 1.257-.3999.402-.2662.699-.6046.894-1.0165v-17.691z"/><path d="m138.692 22.0587v22.2679h-3.938l-.437-2.7244h-.109c-1.071 2.0583-2.674 3.0873-4.813 3.0873-1.483 0-2.576-.4838-3.281-1.4528-.705-.9681-1.057-2.4822-1.057-4.5407v-16.6373h5.031v16.3466c0 .9935.109 1.7016.328 2.1249.219.4244.583.6359 1.094.6359.437 0 .857-.1328 1.257-.3999.402-.2662.699-.6046.894-1.0165v-17.691z"/><path d="m126.556 17.8811h-4.994v26.4454h-4.922v-26.4454h-4.995v-4.0324h14.911z"/><path d="m150.732 34.7014c0 1.6227-.068 2.8942-.201 3.8141-.134.9209-.359 1.5746-.675 1.9617-.316.3876-.742.5811-1.276.5811-.413 0-.796-.0964-1.148-.2907-.353-.1936-.638-.484-.857-.8719v-12.6413c.17-.605.462-1.1017.875-1.4895.413-.3867.862-.581 1.349-.581.51 0 .905.2 1.185.5993.279.3995.474 1.0716.583 2.0164.11.9442.165 2.2883.165 4.0319zm4.611-9.0831c-.304-1.4042-.796-2.4213-1.477-3.0514-.68-.6292-1.616-.9442-2.807-.9442-.923 0-1.786.2605-2.588.7808-.802.5209-1.422 1.2051-1.86 2.0526h-.036v-11.7335h-4.849v31.6035h4.156l.511-2.1065h.109c.389.7505.972 1.3439 1.75 1.7799.778.4357 1.641.6538 2.589.6538 1.701 0 2.952-.7812 3.755-2.343.802-1.5623 1.203-4.0017 1.203-7.3198v-3.5236c0-2.4941-.152-4.4436-.456-5.8486z"/><path d="m61.4189 16.8768c-.5863-2.1854-2.3136-3.9068-4.5071-4.4908-3.976-1.0616-19.9183-1.0616-19.9183-1.0616s-15.9422 0-19.9181 1.0616c-2.1933.584-3.9209 2.3054-4.5071 4.4908-1.0654 3.9615-1.0654 12.2265-1.0654 12.2265s0 8.2653 1.0654 12.2266c.5862 2.1853 2.3138 3.9068 4.5071 4.4907 3.9759 1.0618 19.9181 1.0618 19.9181 1.0618s15.9423 0 19.9183-1.0618c2.1935-.5839 3.9208-2.3054 4.5071-4.4907 1.065-3.9613 1.065-12.2266 1.065-12.2266s0-8.265-1.065-12.2265z"/></g><path d="m31.8955 36.7229v-15.2391l13.2449 7.6197z" fill="#0e031e"/></svg>

<svg width="183" height="59" viewBox="0 0 183 59" fill="none" xmlns="http://www.w3.org/2000/svg">
    <path
        d="M91.1532 40.1853C91.4323 39.4593 91.5725 38.2727 91.5725 36.6259V29.6872C91.5725 28.089 91.4323 26.9208 91.1532 26.1819C90.8738 25.4435 90.3815 25.0739 89.6769 25.0739C88.9962 25.0739 88.5157 25.4435 88.2367 26.1819C87.9572 26.9208 87.8174 28.089 87.8174 29.6872V36.6259C87.8174 38.2727 87.9509 39.4593 88.2186 40.1853C88.4855 40.9121 88.9715 41.275 89.6769 41.275C90.3815 41.275 90.8738 40.9121 91.1532 40.1853ZM85.5026 43.6728C84.4934 42.9954 83.7762 41.9415 83.3515 40.5123C82.926 39.0839 82.7136 37.1827 82.7136 34.8094V31.5763C82.7136 29.1789 82.9562 27.2534 83.4426 25.8005C83.9285 24.3475 84.6877 23.2883 85.7213 22.6221C86.754 21.9563 88.1091 21.6231 89.7864 21.6231C91.439 21.6231 92.7634 21.9624 93.7601 22.6402C94.7564 23.3182 95.4857 24.3781 95.9478 25.8187C96.409 27.2598 96.6402 29.1789 96.6402 31.5763V34.8094C96.6402 37.1827 96.4153 39.0902 95.9658 40.5308C95.5159 41.9717 94.7866 43.0252 93.7782 43.6908C92.7693 44.3568 91.4025 44.69 89.6769 44.69C87.9022 44.69 86.5106 44.3506 85.5026 43.6728Z"
        fill="white" />
    <path
        d="M163.575 25.4902C163.32 25.805 163.149 26.3198 163.064 27.0339C162.979 27.7484 162.937 28.832 162.937 30.285V31.8834H166.619V30.285C166.619 28.8565 166.57 27.7728 166.473 27.0339C166.376 26.2954 166.2 25.7751 165.945 25.4721C165.689 25.1693 165.294 25.0177 164.76 25.0177C164.225 25.0177 163.83 25.1756 163.575 25.4902ZM162.937 34.8623V35.9885C162.937 37.4176 162.979 38.4891 163.064 39.2032C163.149 39.9177 163.325 40.4385 163.593 40.7655C163.86 41.0921 164.273 41.2559 164.833 41.2559C165.586 41.2559 166.103 40.9652 166.382 40.3837C166.661 39.8026 166.813 38.8341 166.837 37.4776L171.176 37.732C171.201 37.9264 171.213 38.1926 171.213 38.531C171.213 40.5899 170.648 42.1278 169.517 43.1449C168.388 44.1616 166.789 44.6704 164.723 44.6704C162.244 44.6704 160.506 43.8957 159.51 42.3454C158.513 40.7962 158.015 38.3985 158.015 35.153V31.2659C158.015 27.9239 158.531 25.4845 159.564 23.9461C160.597 22.4084 162.366 21.6395 164.869 21.6395C166.594 21.6395 167.919 21.9544 168.843 22.5839C169.766 23.214 170.417 24.1948 170.793 25.5263C171.17 26.8584 171.359 28.6992 171.359 31.048V34.8623H162.937Z"
        fill="white" />
    <path
        d="M73.2514 34.4452L67.5273 13.8481H72.522L74.5271 23.184C75.0379 25.4852 75.4143 27.4467 75.6573 29.0688H75.8033C75.9733 27.9065 76.3501 25.9572 76.9334 23.2204L79.0115 13.8481H84.0062L78.2096 34.4452V44.3265H73.2514V34.4452Z"
        fill="white" />
    <path
        d="M112.885 22.0587V44.3266H108.947L108.51 41.6022H108.401C107.331 43.6605 105.727 44.6895 103.588 44.6895C102.105 44.6895 101.012 44.2057 100.307 43.2367C99.6018 42.2686 99.2498 40.7545 99.2498 38.696V22.0587H104.281V38.4053C104.281 39.3988 104.39 40.1069 104.609 40.5302C104.828 40.9546 105.192 41.1661 105.703 41.1661C106.14 41.1661 106.56 41.0333 106.96 40.7662C107.362 40.5 107.659 40.1616 107.854 39.7497V22.0587H112.885Z"
        fill="white" />
    <path
        d="M138.692 22.0587V44.3266H134.754L134.317 41.6022H134.208C133.137 43.6605 131.534 44.6895 129.395 44.6895C127.912 44.6895 126.819 44.2057 126.114 43.2367C125.409 42.2686 125.057 40.7545 125.057 38.696V22.0587H130.088V38.4053C130.088 39.3988 130.197 40.1069 130.416 40.5302C130.635 40.9546 130.999 41.1661 131.51 41.1661C131.947 41.1661 132.367 41.0333 132.767 40.7662C133.169 40.5 133.466 40.1616 133.661 39.7497V22.0587H138.692Z"
        fill="white" />
    <path d="M126.556 17.8811H121.562V44.3265H116.64V17.8811H111.645V13.8487H126.556V17.8811Z" fill="white" />
    <path
        d="M150.732 34.7014C150.732 36.3241 150.664 37.5956 150.531 38.5155C150.397 39.4364 150.172 40.0901 149.856 40.4772C149.54 40.8648 149.114 41.0583 148.58 41.0583C148.167 41.0583 147.784 40.9619 147.432 40.7676C147.079 40.574 146.794 40.2836 146.575 39.8957V27.2544C146.745 26.6494 147.037 26.1527 147.45 25.7649C147.863 25.3782 148.312 25.1839 148.799 25.1839C149.309 25.1839 149.704 25.3839 149.984 25.7832C150.263 26.1827 150.458 26.8548 150.567 27.7996C150.677 28.7438 150.732 30.0879 150.732 31.8315V34.7014ZM155.343 25.6183C155.039 24.2141 154.547 23.197 153.866 22.5669C153.186 21.9377 152.25 21.6227 151.059 21.6227C150.136 21.6227 149.273 21.8832 148.471 22.4035C147.669 22.9244 147.049 23.6086 146.611 24.4561H146.575L146.575 12.7226H141.726V44.3261H145.882L146.393 42.2196H146.502C146.891 42.9701 147.474 43.5635 148.252 43.9995C149.03 44.4352 149.893 44.6533 150.841 44.6533C152.542 44.6533 153.793 43.8721 154.596 42.3103C155.398 40.748 155.799 38.3086 155.799 34.9905V31.4669C155.799 28.9728 155.647 27.0233 155.343 25.6183Z"
        fill="white" />
    <path
        d="M61.4189 16.8768C60.8326 14.6914 59.1053 12.97 56.9118 12.386C52.9358 11.3244 36.9935 11.3244 36.9935 11.3244C36.9935 11.3244 21.0513 11.3244 17.0754 12.386C14.8821 12.97 13.1545 14.6914 12.5683 16.8768C11.5029 20.8383 11.5029 29.1033 11.5029 29.1033C11.5029 29.1033 11.5029 37.3686 12.5683 41.3299C13.1545 43.5152 14.8821 45.2367 17.0754 45.8206C21.0513 46.8824 36.9935 46.8824 36.9935 46.8824C36.9935 46.8824 52.9358 46.8824 56.9118 45.8206C59.1053 45.2367 60.8326 43.5152 61.4189 41.3299C62.4839 37.3686 62.4839 29.1033 62.4839 29.1033C62.4839 29.1033 62.4839 20.8383 61.4189 16.8768Z"
        fill="white" />
    <path d="M31.8955 36.7229V21.4838L45.1404 29.1035L31.8955 36.7229Z" fill="#0E031E" />
</svg>
